X: 6867
T: Charlie's Aunt
R: jig
M: 6/8
K: Dmixolydian
|:d^cd =fed|cAB c2 A|dcA GFG|AdD EFG|
Add =fed|cAB c2 d|eag edc|AGE D2 A:|
|:d^cd afd|d^cd afd|cBc gec|cBc gfg|
agf gfe|dAB c2 d|eag edc|AGE D2 A:|

